app/images/icon/contact-time-white.svg

<svg width="19" height="19" viewBox="0 0 19 19" fill="none" xmlns="http://www.w3.org/2000/svg">
<path d="M16.1566 5.36062C15.7425 5.56106 15.5692 6.05945 15.7696 6.47349L15.8821 6.41903L15.7696 6.47349C16.2266 7.4176 16.4583 8.43516 16.4583 9.5C16.4583 13.3367 13.3367 16.4583 9.5 16.4583C5.66334 16.4583 2.54167 13.3367 2.54167 9.5C2.54167 5.66334 5.66334 2.54167 9.5 2.54167C11.0904 2.54167 12.5833 3.06069 13.8195 4.04266C14.1789 4.3295 14.7039 4.26918 14.9904 3.90911C15.2771 3.54894 15.217 3.02444 14.8566 2.73817C13.3445 1.53641 11.4423 0.875 9.5 0.875C4.74431 0.875 0.875 4.74431 0.875 9.5C0.875 14.2557 4.74431 18.125 9.5 18.125C14.2557 18.125 18.125 14.2557 18.125 9.5C18.125 8.18265 17.8372 6.91939 17.2696 5.74768C17.0695 5.33269 16.5696 5.15982 16.1566 5.36062ZM16.1566 5.36062C16.1567 5.3606 16.1567 5.36058 16.1567 5.36056L16.2112 5.47308L16.1565 5.36068C16.1565 5.36066 16.1566 5.36064 16.1566 5.36062Z" fill="white" stroke="white" stroke-width="0.25"/>
<path d="M9.49996 3.70801C9.03992 3.70801 8.66663 4.0813 8.66663 4.54134V9.49967C8.66663 9.95971 9.03992 10.333 9.49996 10.333H13.0416C13.5017 10.333 13.875 9.95971 13.875 9.49967C13.875 9.03964 13.5017 8.66634 13.0416 8.66634H10.3333V4.54134C10.3333 4.0813 9.96 3.70801 9.49996 3.70801Z" fill="white" stroke="white" stroke-width="0.25"/>
</svg>

<svg width="19" height="19" fill="none" xmlns="http://www.w3.org/2000/svg">
    <path d="M16.157 5.36a.833.833 0 0 0-.387 1.113l.112-.054-.112.054a6.966 6.966 0 0 1-6.27 9.985A6.966 6.966 0 0 1 2.542 9.5 6.966 6.966 0 0 1 9.5 2.542c1.59 0 3.083.519 4.32 1.5a.833.833 0 1 0 1.037-1.304A8.64 8.64 0 0 0 9.5.875C4.744.875.875 4.745.875 9.5c0 4.756 3.87 8.625 8.625 8.625 4.756 0 8.625-3.87 8.625-8.625 0-1.317-.288-2.58-.855-3.752a.833.833 0 0 0-1.113-.387Zm0 0 .054.113-.054-.112Z" fill="#fff" stroke="#fff" stroke-width=".25"/>
    <path d="M9.5 3.708a.834.834 0 0 0-.833.833V9.5c0 .46.373.833.833.833h3.542a.834.834 0 0 0 0-1.667h-2.709V4.541a.834.834 0 0 0-.833-.833Z" fill="#fff" stroke="#fff" stroke-width=".25"/>
</svg>
